common/resources/fonts/svg/bold2.svg

<?xml version="1.0" encoding="UTF-8" standalone="no"?>
<svg width="1024px" height="1024px" viewBox="0 0 1024 1024" version="1.1" xmlns="http://www.w3.org/2000/svg" xmlns:xlink="http://www.w3.org/1999/xlink">
    <!-- Generator: Sketch 3.7.1 (28215) - http://www.bohemiancoding.com/sketch -->
    <title>bold2</title>
    <desc>Created with Sketch.</desc>
    <defs></defs>
    <g id="Page-1" stroke="none" stroke-width="1" fill="none" fill-rule="evenodd">
        <g id="bold2" fill="#000000">
            <path d="M707.304241,485.182522 C744.760391,440.690234 767.357143,383.288371 767.357143,320.714286 C767.357143,179.71183 652.643315,65 511.642857,65 L192,65 L192,960 L575.571429,960 C716.571886,960 831.285714,845.286172 831.285714,704.285714 C831.285714,611.43346 781.543292,529.984464 707.304241,485.182522 L707.304241,485.182522 Z M383.785714,192.857143 L485.172433,192.857143 C541.077969,192.857143 586.559152,250.213058 586.559152,320.714286 C586.559152,391.215513 541.077969,448.571429 485.172433,448.571429 L383.785714,448.571429 L383.785714,192.857143 L383.785714,192.857143 Z M542.608259,832.142857 L383.785714,832.142857 L383.785714,576.428571 L542.608259,576.428571 C600.993025,576.428571 648.489955,633.784487 648.489955,704.285714 C648.489955,774.786942 600.993025,832.142857 542.608259,832.142857 L542.608259,832.142857 Z" id="Shape"></path>
        </g>
    </g>
</svg>

<svg width="1024" height="1024" viewBox="0 0 1024 1024">
    <path d="M707.304 485.183c37.456-44.493 60.053-101.895 60.053-164.469C767.357 179.712 652.643 65 511.643 65H192v895h383.571c141 0 255.715-114.714 255.715-255.714 0-92.853-49.743-174.302-123.982-219.103zM383.786 192.857h101.386c55.906 0 101.387 57.356 101.387 127.857 0 70.502-45.481 127.857-101.387 127.857H383.786V192.857zm158.822 639.286H383.786V576.429h158.822c58.385 0 105.882 57.355 105.882 127.857 0 70.5-47.497 127.857-105.882 127.857z" fill-rule="evenodd"/>
</svg>
